X: 3
T: The Lochaber Badger
R: reel
M: 4/4
L: 1/8
K: Ador
|:e2 dc dc A2|A2 GA cGAc|e2 dc dc A2|AGcG A2 A2|e2 dc dc A2|A2 GA cGAc|e2 dc dc A2|AGcG A4|||:A2 GA cA d2|d2 cd eg e2|e2 dc dc A2|AGcG A2 A2|A2 GA cA d2|d2 cd eg e2|e2 dc dc A2|AGcG A4||


Tune 5758	Setting 29639

